X:1
T:Green Mossy Banks of the Lea
M:3/4
L:1/4
K:D
 B,| E E F| GA/2-G/2 E| D E G/2A/2| B d B| AF/2-E/2 D| E2 B,| E E F|\
 GA/2-G/2 E| D E G/2A/2| B d B| A F/2E/2 D| E2 B| d c B|B/2-A/2 F ^G|\
 A BB/2-A/2| G F E| E B, C| D2(3B,3.99999962500005/11.9999985000002B,3.99999962500005/11.9999985000002C3.99999962500005/11.9999985000002B,3.99999962500005/11.9999985000002C3.99999962500005/11.9999985000002D3.99999962500005/11.9999985000002|\
 E E F| GA/2-G/2 E| D E G/2A/2| B d B| AF/2-E/2 D| E2||
